src/assets/bold/lm-hand-shake-heart-bold.svg

<svg width="24" height="24" viewBox="0 0 24 24" fill="none" xmlns="http://www.w3.org/2000/svg" fill="currentColor">
<path d="M8.50246 5.09982C9.07662 5.16107 9.63187 5.34053 10.1333 5.62692C10.4498 5.80769 10.7405 6.0286 10.9985 6.2835L8.24538 9.03657C7.92251 9.35954 7.74113 9.79753 7.74113 10.2542C7.74113 10.7109 7.92259 11.1489 8.24546 11.4719L8.77985 12.0063C9.74716 12.9736 11.3167 12.9736 12.2841 12.0063L13.2682 11.0222C13.7171 10.5733 14.3258 10.3212 14.9606 10.3212C15.5954 10.3212 16.2042 10.5733 16.653 11.0222L18.3785 12.7476L16.9551 14.1573L15.4825 12.6847C15.1943 12.3965 14.7269 12.3965 14.4387 12.6847C14.1504 12.973 14.1504 13.4403 14.4387 13.7286L15.9063 15.1961L14.4829 16.6058L13.0222 15.1451C12.7339 14.8568 12.2666 14.8568 11.9783 15.1451C11.6901 15.4333 11.6901 15.9007 11.9783 16.1889L13.434 17.6446L12.0082 19.0568L5.1465 12.261L5.14184 12.2564C4.72801 11.8538 4.40205 11.3697 4.18448 10.8349C3.9669 10.3 3.86243 9.72592 3.87763 9.1487C3.89284 8.57149 4.02739 8.00367 4.27282 7.48101C4.51825 6.95835 4.86924 6.49217 5.30369 6.11183C5.73814 5.73148 6.24664 5.44521 6.79716 5.27104C7.34768 5.09687 7.9283 5.03857 8.50246 5.09982ZM12.4717 6.89797C12.5186 6.86014 12.5611 6.81632 12.5981 6.76712C12.944 6.30705 13.3812 5.92334 13.8823 5.63999C14.3833 5.35665 14.9374 5.17978 15.51 5.12044C16.0825 5.06111 16.6612 5.12059 17.2097 5.29517C17.7582 5.46975 18.2647 5.75566 18.6977 6.13501C19.1306 6.51437 19.4805 6.979 19.7256 7.49983C19.9707 8.02065 20.1057 8.58646 20.1221 9.16184C20.1384 9.73723 20.0359 10.3098 19.8208 10.8437C19.7044 11.1326 19.5564 11.4068 19.3801 11.6615L17.6968 9.97832C16.9711 9.25263 15.9869 8.84494 14.9606 8.84494C13.9343 8.84494 12.9501 9.25263 12.2244 9.97832L11.2402 10.9625C10.8494 11.3533 10.2145 11.3533 9.82369 10.9625L9.2893 10.4281C9.28928 10.4281 9.28933 10.4281 9.2893 10.4281C9.24323 10.3819 9.21735 10.3194 9.21735 10.2542C9.21735 10.189 9.24331 10.1264 9.28938 10.0803C9.28936 10.0803 9.28941 10.0802 9.28938 10.0803L12.4717 6.89797ZM19.8495 13.3685C19.8691 13.3528 19.8881 13.3359 19.9065 13.3179C20.4621 12.7722 20.899 12.1177 21.19 11.3953C21.4811 10.673 21.6198 9.89832 21.5977 9.11987C21.5755 8.34141 21.3929 7.5759 21.0613 6.87125C20.7297 6.16661 20.2563 5.53799 19.6706 5.02474C19.0848 4.5115 18.3995 4.12468 17.6574 3.88848C16.9153 3.65229 16.1324 3.57181 15.3578 3.65209C14.5832 3.73237 13.8335 3.97166 13.1556 4.35501C12.7386 4.59084 12.3543 4.87806 12.0113 5.2091C11.6684 4.87447 11.2836 4.58388 10.8654 4.34506C10.1871 3.9576 9.43585 3.7148 8.65904 3.63193C7.88224 3.54907 7.0967 3.62794 6.35187 3.86358C5.60705 4.09922 4.91909 4.48653 4.3313 5.00112C3.74352 5.5157 3.26865 6.14642 2.93659 6.85354C2.60454 7.56067 2.4225 8.32889 2.40193 9.10983C2.38135 9.89077 2.5227 10.6675 2.81707 11.3911C3.11101 12.1137 3.55117 12.7677 4.1099 13.3121C4.11071 13.3128 4.11152 13.3136 4.11232 13.3144L11.4888 20.6201C11.7764 20.905 12.2399 20.905 12.5276 20.6201L19.8495 13.3685Z" fill="black"/>
</svg>

<svg xmlns="http://www.w3.org/2000/svg" width="24" height="24" fill="currentColor" viewBox="0 0 24 24">
  <path d="M8.502 5.1a4.183 4.183 0 0 1 2.496 1.184L8.245 9.037a1.722 1.722 0 0 0 0 2.435l.535.534a2.479 2.479 0 0 0 3.504 0l.984-.984a2.393 2.393 0 0 1 3.385 0l1.726 1.726-1.424 1.41-1.472-1.473a.738.738 0 0 0-1.044 1.044l1.467 1.467-1.423 1.41-1.46-1.46a.738.738 0 1 0-1.045 1.043l1.456 1.456-1.426 1.412-6.861-6.796-.005-.005A4.182 4.182 0 0 1 8.502 5.1Zm3.97 1.798a.737.737 0 0 0 .126-.13 4.182 4.182 0 0 1 6.782 4.894l-1.683-1.684a3.87 3.87 0 0 0-5.473 0l-.984.985c-.39.39-1.026.39-1.416 0l-.535-.535a.246.246 0 0 1 0-.348l3.183-3.182Zm7.377 6.47a.77.77 0 0 0 .058-.05 5.658 5.658 0 0 0-7.896-8.109 5.658 5.658 0 1 0-7.899 8.105l7.377 7.306a.738.738 0 0 0 1.039 0l7.321-7.252Z"/>
</svg>
